src/components/icons/tokens/imUSD.svg

<svg width="330" height="330" viewBox="0 0 330 330" fill="none" xmlns="http://www.w3.org/2000/svg">
<g clip-path="url(#clip0)">
<circle cx="165" cy="165" r="137" fill="white"/>
<path d="M165 330C197.634 330 229.535 320.323 256.669 302.192C283.803 284.062 304.952 258.293 317.44 228.143C329.929 197.993 333.196 164.817 326.83 132.81C320.463 100.803 304.748 71.4031 281.673 48.3274C258.597 25.2517 229.197 9.537 197.19 3.17044C165.183 -3.19612 132.007 0.0714312 101.857 12.5599C71.7074 25.0484 45.9379 46.1968 27.8075 73.3309C9.67708 100.465 0 132.366 0 165C0 208.761 17.3839 250.729 48.3274 281.673C79.2709 312.616 121.239 330 165 330ZM165 302.71C137.764 302.707 111.141 294.628 88.4964 279.496C65.8517 264.364 48.2021 242.857 37.7793 217.694C27.3564 192.532 24.6283 164.844 29.9399 138.132C35.2514 111.419 48.3641 86.881 67.62 67.62C93.5131 42.1129 128.44 27.8758 164.786 28.0123C201.132 28.1488 235.951 42.6477 261.651 68.3486C287.352 94.0494 301.851 128.868 301.988 165.214C302.124 201.56 287.887 236.487 262.38 262.38C249.621 275.207 234.445 285.376 217.729 292.299C201.014 299.221 183.092 302.76 165 302.71ZM165 46.37C141.537 46.37 118.601 53.3275 99.0927 66.3628C79.5841 79.398 64.379 97.9255 55.4002 119.602C46.4213 141.279 44.0721 165.132 48.6494 188.144C53.2268 211.156 64.5252 232.293 81.1159 248.884C97.7066 265.475 118.844 276.773 141.856 281.351C164.868 285.928 188.721 283.579 210.398 274.6C232.075 265.621 250.602 250.416 263.637 230.907C276.672 211.399 283.63 188.463 283.63 165C283.593 133.549 271.083 103.396 248.843 81.1569C226.604 58.9174 196.451 46.4071 165 46.37ZM100.38 204H227.85V223.5H100.38V204ZM153.21 154.7C153.32 158.02 153.78 163.84 161.55 165.78V148.32L154.35 146.38C146.59 144.32 133.91 140.9 133.91 125.38C133.91 114.64 141.45 102.99 161.55 102.38V92.13H168.28V102.41C191.01 103.41 195.23 113.6 195.35 125.82H174.56C174.68 117.82 170 116.34 168.28 116.12V132.45C180.16 135.07 186.1 136.45 191.47 140.9C193.607 142.782 195.307 145.109 196.451 147.718C197.594 150.326 198.154 153.153 198.09 156C198.09 160.8 196.49 170.62 184.84 176.33C180.62 178.33 175.36 179.41 168.28 179.87V190H161.55V179.84C150.01 179.38 132.77 175.61 132.65 154.71L153.21 154.7ZM161.55 116C155.49 117.6 155.04 121.6 155.04 123.31C155.04 126.74 157.66 129.71 161.55 130.62V116ZM168.28 166C174.11 165.09 176.73 161.55 176.73 157.66C176.73 152.07 171.6 150.66 170.11 150.35L168.28 149.78V166Z" fill="#020202"/>
</g>
<defs>
<clipPath id="clip0">
<rect width="330" height="330" fill="white"/>
</clipPath>
</defs>
</svg>

<svg width="330" height="330" fill="none" xmlns="http://www.w3.org/2000/svg"><g clip-path="url(#clip0)"><circle cx="165" cy="165" r="137" fill="#fff"/><path d="M165 330a164.995 164.995 0 00152.44-101.857A165.002 165.002 0 00197.19 3.17 165.001 165.001 0 10165 330zm0-27.29A137.722 137.722 0 0129.94 138.132 137.72 137.72 0 0167.62 67.62a137.72 137.72 0 01194.76 194.76A136.819 136.819 0 01165 302.71zm0-256.34A118.628 118.628 0 0048.65 188.144 118.63 118.63 0 00283.63 165 118.767 118.767 0 00165 46.37zM100.38 204h127.47v19.5H100.38V204zm52.83-49.3c.11 3.32.57 9.14 8.34 11.08v-17.46l-7.2-1.94c-7.76-2.06-20.44-5.48-20.44-21 0-10.74 7.54-22.39 27.64-23V92.13h6.73v10.28c22.73 1 26.95 11.19 27.07 23.41h-20.79c.12-8-4.56-9.48-6.28-9.7v16.33c11.88 2.62 17.82 4 23.19 8.45a19.541 19.541 0 016.62 15.1c0 4.8-1.6 14.62-13.25 20.33-4.22 2-9.48 3.08-16.56 3.54V190h-6.73v-10.16c-11.54-.46-28.78-4.23-28.9-25.13l20.56-.01zm8.34-38.7c-6.06 1.6-6.51 5.6-6.51 7.31 0 3.43 2.62 6.4 6.51 7.31V116zm6.73 50c5.83-.91 8.45-4.45 8.45-8.34 0-5.59-5.13-7-6.62-7.31l-1.83-.57V166z" fill="#020202"/></g><defs><clipPath id="clip0"><path fill="#fff" d="M0 0h330v330H0z"/></clipPath></defs></svg>
